X: 314
T: Election tune
R: Jig
M: 6/8
L: 1/8
K: D
A | "D"d2f f3 | "Em"e2g g3 | "D/F#"fed dcd | "G"ecA "A"ABc | "D"d2 f f3 | "Em"e2g g2g | 
"G"fed "A"edc | "D"d3 d2 :||: "D"ABA "D/C#"F2G | "D/B"A2d "D/A"d2B | "D"ABA "Bm"FGA |
"Em"G2E "A"E2B | "D"ABA "D/C#"F2G | "D/B"A2a "D/F#"a2g | "G"fed "A"edc | "D"d3 d2:|

